packages/core/src/svgs/tokens/branded/TUT.svg

<svg width="24" height="24" viewBox="0 0 24 24" fill="none" xmlns="http://www.w3.org/2000/svg">
<path fill-rule="evenodd" clip-rule="evenodd" d="M11.9927 21.9934C14.6429 21.9934 17.1847 20.9405 19.0586 19.0666C20.9326 17.1925 21.9855 14.6509 21.9855 12.0006C21.9855 9.35039 20.9326 6.80872 19.0586 4.93473C17.1847 3.06074 14.6429 2.00793 11.9927 2.00793C9.3425 2.00793 6.80079 3.06074 4.9268 4.93473C3.05281 6.80872 2 9.35039 2 12.0006C2 14.6509 3.05281 17.1925 4.9268 19.0666C6.80079 20.9405 9.3425 21.9934 11.9927 21.9934ZM15.7399 12.0006L10.1191 8.87793V15.1234L15.7399 12.0006Z" fill="url(#paint0_linear_364_2624)"/>
<path d="M16.2962 2.97607C17.7075 5.11201 19.2814 9.40265 15.7402 12.0007L10.1194 15.1235C10.1194 16.791 11.2435 20.1822 15.7402 20.4321C16.3086 20.4633 16.8582 20.4571 17.3703 20.4259C18.8769 19.4683 20.0992 18.1246 20.91 16.5344C21.721 14.9442 22.0909 13.1658 21.9811 11.3841C21.8714 9.60244 21.2863 7.88272 20.2865 6.40398C19.2866 4.92526 17.9086 3.74155 16.2962 2.97607Z" fill="url(#paint1_linear_364_2624)"/>
<path d="M2.00013 12.0508C2.69962 10.427 4.29222 8.25363 6.99649 8.25363C7.41493 8.25363 8.62031 8.37854 10.1192 8.87818L15.7401 12.0008C16.5707 11.3764 18.2383 9.69004 18.2383 7.94136C18.2383 6.06773 17.5513 4.43142 16.3772 3.01995C14.8498 2.27418 13.1575 1.93033 11.4602 2.02092C9.76291 2.1115 8.11673 2.63352 6.67743 3.53761C5.23813 4.44172 4.05322 5.698 3.23478 7.18768C2.41633 8.67735 1.99139 10.3512 2.00013 12.0508Z" fill="url(#paint2_linear_364_2624)"/>
<defs>
<linearGradient id="paint0_linear_364_2624" x1="11.9998" y1="2.00646" x2="11.9998" y2="21.9934" gradientUnits="userSpaceOnUse">
<stop stop-color="#036276"/>
<stop offset="0.36" stop-color="#066579"/>
<stop offset="0.7" stop-color="#039AAB"/>
<stop offset="1" stop-color="#11B7C5"/>
</linearGradient>
<linearGradient id="paint1_linear_364_2624" x1="11.988" y1="2.00655" x2="11.988" y2="21.9914" gradientUnits="userSpaceOnUse">
<stop stop-color="#00B8C2"/>
<stop offset="1" stop-color="#046179"/>
</linearGradient>
<linearGradient id="paint2_linear_364_2624" x1="18.5505" y1="8.25363" x2="2.62467" y2="9.50278" gradientUnits="userSpaceOnUse">
<stop stop-color="#005F71"/>
<stop offset="1" stop-color="#02BCCD"/>
</linearGradient>
</defs>
</svg>

<svg xmlns="http://www.w3.org/2000/svg" width="24" height="24" fill="none" viewBox="0 0 24 24">
    <path fill="url(#TUT__a)" fill-rule="evenodd" d="M11.993 21.993a9.993 9.993 0 1 0 0-19.986 9.993 9.993 0 0 0 0 19.986m3.747-9.992-5.62-3.123v6.245z" clip-rule="evenodd"/>
    <path fill="url(#TUT__b)" d="M16.296 2.976c1.412 2.136 2.985 6.427-.556 9.025l-5.62 3.123c0 1.667 1.124 5.058 5.62 5.308.569.031 1.118.025 1.63-.006a9.986 9.986 0 0 0-1.074-17.45"/>
    <path fill="url(#TUT__c)" d="M2 12.05c.7-1.623 2.292-3.796 4.996-3.796.419 0 1.624.125 3.123.624l5.621 3.123c.83-.625 2.498-2.311 2.498-4.06 0-1.873-.687-3.51-1.86-4.921A9.993 9.993 0 0 0 2 12.05"/>
    <defs>
        <linearGradient id="TUT__a" x1="12" x2="12" y1="2.006" y2="21.993" gradientUnits="userSpaceOnUse">
            <stop stop-color="#036276"/>
            <stop offset=".36" stop-color="#066579"/>
            <stop offset=".7" stop-color="#039AAB"/>
            <stop offset="1" stop-color="#11B7C5"/>
        </linearGradient>
        <linearGradient id="TUT__b" x1="11.988" x2="11.988" y1="2.007" y2="21.991" gradientUnits="userSpaceOnUse">
            <stop stop-color="#00B8C2"/>
            <stop offset="1" stop-color="#046179"/>
        </linearGradient>
        <linearGradient id="TUT__c" x1="18.55" x2="2.625" y1="8.254" y2="9.503" gradientUnits="userSpaceOnUse">
            <stop stop-color="#005F71"/>
            <stop offset="1" stop-color="#02BCCD"/>
        </linearGradient>
    </defs>
</svg>
